dist/img/button-submit.svg

<svg width="34" height="34" viewBox="0 0 34 34" fill="none" xmlns="http://www.w3.org/2000/svg">
<path d="M10.0607 16.9393C9.47487 16.3536 8.52513 16.3536 7.93934 16.9393C7.35355 17.5251 7.35355 18.4749 7.93934 19.0607L10.0607 16.9393ZM12.9393 24.0607L14 25.1213L16.1213 23L15.0607 21.9393L12.9393 24.0607ZM13.9403 22.9405C13.3546 23.5263 13.3547 24.4761 13.9406 25.0618C14.5264 25.6475 15.4762 25.6474 16.0619 25.0616L13.9403 22.9405ZM26.5607 14.5606C27.1464 13.9747 27.1463 13.025 26.5604 12.4393C25.9746 11.8535 25.0248 11.8536 24.4391 12.4395L26.5607 14.5606ZM30.5 17C30.5 24.4558 24.4558 30.5 17 30.5V33.5C26.1127 33.5 33.5 26.1127 33.5 17H30.5ZM17 30.5C9.54416 30.5 3.5 24.4558 3.5 17H0.5C0.5 26.1127 7.8873 33.5 17 33.5V30.5ZM3.5 17C3.5 9.54416 9.54416 3.5 17 3.5V0.5C7.8873 0.5 0.5 7.8873 0.5 17H3.5ZM17 3.5C24.4558 3.5 30.5 9.54416 30.5 17H33.5C33.5 7.8873 26.1127 0.5 17 0.5V3.5ZM7.93934 19.0607L12.9393 24.0607L15.0607 21.9393L10.0607 16.9393L7.93934 19.0607ZM16.0619 25.0616L26.5607 14.5606L24.4391 12.4395L13.9403 22.9405L16.0619 25.0616Z" fill="white"/>
</svg>

<svg width="34" height="34" fill="none" xmlns="http://www.w3.org/2000/svg"><path d="M10.06 16.94a1.5 1.5 0 0 0-2.12 2.12l2.12-2.12Zm2.88 7.12L14 25.122 16.121 23l-1.06-1.06-2.122 2.12Zm1-1.12a1.5 1.5 0 0 0 2.122 2.122L13.94 22.94Zm12.62-8.38a1.5 1.5 0 0 0-2.12-2.12l2.12 2.12ZM30.5 17c0 7.456-6.044 13.5-13.5 13.5v3c9.113 0 16.5-7.387 16.5-16.5h-3ZM17 30.5C9.544 30.5 3.5 24.456 3.5 17h-3c0 9.113 7.387 16.5 16.5 16.5v-3ZM3.5 17C3.5 9.544 9.544 3.5 17 3.5v-3C7.887.5.5 7.887.5 17h3ZM17 3.5c7.456 0 13.5 6.044 13.5 13.5h3C33.5 7.887 26.113.5 17 .5v3ZM7.94 19.06l5 5 2.12-2.12-5-5-2.12 2.12Zm8.122 6.002L26.56 14.56l-2.122-2.121-10.499 10.5 2.122 2.122Z" fill="#fff"/></svg>
